X:1
T:Title
%%score 1 2 3 4
L:1/8
M:4/4
K:F
V:1 treble nm="Church Organ, Soprano"
V:2 treble nm="French Horn, Alto"
V:3 bass nm="Trombone, Tenor"
V:4 bass nm="Tuba, Bass"
V:1
 z8 | z8 | z4 z2 f2- | f2 d4 c2- | c4 z4 | z8 | z4 z2 c2- | c2 B4 A2- | A6 F2- | F2 G4 A2- | %10
 A4 B2 c2- | c2 A4 B2- | B2 G4 F2- | F6 z2 |] %14
V:2
 z8 | z8 | z4 z2 A2- | A2 B4 A2- | A4 z4 | z8 | z4 z2 A2- | A2 G2 F2 E2- | E6 D2- | D2 E4 F2- | %10
 F4 F2 F2- | F2 F4 F2- | F4 E2 C2- | C6 z2 |] %14
V:3
 F,2 C2 C2 C2 | C2[K:treble] D2 B,2 C2- | C4 z2 F2- | F2 F4 F2- | F4 F2 F2 | E2 D2 C2 C2 | %6
w: By~M.~Praetorius * * *||||||
 =B,2 C4 F2 | E2 D4 ^C2- | C6 A,2- | A,2 C4 C2- | C4 D2 C2- | C2 D4 D2 | C6 A,2- | A,6 z2 |] %14
w: ||||||||
V:4
 z8 | z8 | z4 z2 D,2- | D,2 B,,4 F,2- | F,4 z4 | z8 | z4 z2 F,2- | F,2 G,4 A,2- | A,6 D,2- | %9
w: ||God~|* with~ us.~|||God~|* with~ us.~|* God~|
 D,2 C,4 F,2- | F,4 B,,2 A,,2- | A,,2 D,4 G,,2 | C,6 F,2- | F,6 z2 |] %14
w: * with~ us.~|* Who~ dare~|* the~ truth~|de ny.~||

